packages/theme-saas/src/svgs/triangle-down.svg

<svg viewBox="0 0 24 24" xmlns="http://www.w3.org/2000/svg"
	xmlns:xlink="http://www.w3.org/1999/xlink">
	<defs />
	<g opacity="0.000000" />
	<path id="路径"
		d="M20.5303 7.46967C20.264 7.20343 19.8474 7.1792 19.5538 7.39703L19.4697 7.46967L12 14.939L4.53033 7.46967C4.26404 7.20343 3.84741 7.1792 3.55377 7.39703L3.46967 7.46967C3.20343 7.73596 3.1792 8.15259 3.39703 8.44623L3.46967 8.53033L11.4697 16.5303C11.736 16.7966 12.1526 16.8208 12.4462 16.603L12.5303 16.5303L20.5303 8.53033C20.8232 8.23743 20.8232 7.76257 20.5303 7.46967Z"
		fill-rule="evenodd" />
</svg>

<svg viewBox="0 8 24 24" xmlns="http://www.w3.org/2000/svg"
	isSvg="true">
	<path
		d="M20.53 7.47a.75.75 0 0 0-.976-.073l-.084.073L12 14.939l-7.47-7.47a.75.75 0 0 0-.976-.072l-.084.073a.75.75 0 0 0-.073.976l.073.084 8 8a.75.75 0 0 0 .976.073l.084-.073 8-8a.75.75 0 0 0 0-1.06Z"
		fill-rule="evenodd"></path>
</svg>
